X: 19
T:Lament for Jeff Ar Penven
R:Air
C:Robert Mathieson
M:6/8
L:1/8
K:Hp
B2B f3 | gfe d3 | efe d2B | \
M:9/8 
e2d c6 | \
M:6/8
B2B f3 | dcd e3 | gfe d2B | \
M:9/8
c2d B6 :|
M:6/8
f2 a f>ed | e2f Bcd | e2f a>ga | (f3 f2)e |\
f2 a f>ed | e2f Bcd | e2f d2c | c(B2 B3) :|

